!!!COA:	Josquin des Prez
!!!CDT:	~1450-1521/08/27
!!!OTL@@FRE:	Jay bien cause de lamenter
!!!AGN:	Chanson
!!!SCT:	NJE 30.5
!!!SCA:	New Josquin Edition 30.5
!!!voices:	6
**kern	**kern	**kern	**kern	**kern	**kern
*staff6	*staff5	*staff4	*staff3	*staff2	*staff1
*Ivox	*Ivox	*Ivox	*Ivox	*Ivox	*Ivox
*I"Bassus1	*I"Bassus2	*I"Tenor	*I"Sextus	*I"Altus	*I"Discantus
*I'B1	*I'B2	*I'T	*I'Sx	*I'A	*I'D
*clefF4	*clefF4	*clefGv2	*clefGv2	*clefG2	*clefG2
*k[b-]	*k[b-]	*k[b-]	*k[b-]	*k[b-]	*k[b-]
*M2/1	*M2/1	*M2/1	*M2/1	*M2/1	*M2/1
*met(C|)	*met(C|)	*met(C|)	*met(C|)	*met(C|)	*met(C|)
=1-	=1-	=1-	=1-	=1-	=1-
1r	1D	0r	1r	0r	0r
1D	2BB-/	.	1D	.	.
.	2GG/	.	.	.	.
=2	=2	=2	=2	=2	=2
2BB-/	0D	1r	2F/	0r	0r
2GG/	.	.	2G/	.	.
[1D	.	1d	1A	.	.
=3	=3	=3	=3	=3	=3
1D]	2.GG/	2B-\	1B-	0r	1r
.	.	2G/	.	.	.
.	4AA/	.	.	.	.
1r	4BB-/	[1d	2G/	.	1d
.	4C/	.	.	.	.
.	[2D\	.	2B-\	.	.
=4	=4	=4	=4	=4	=4
0r	4D\]	1d]	2A/	0r	2f/
.	4C/	.	.	.	.
.	2BB-/	.	1G	.	2g/
.	2AA/	1r	.	.	1a
.	2AA/	.	2F#i/	.	.
=5	=5	=5	=5	=5	=5
1D	0GG	2.G/	0G	1r	1b-
.	.	4A/	.	.	.
2BB-/	.	4B-\	.	1d	2g/
.	.	4c\	.	.	.
2GG/	.	[2d\	.	.	2b-\
=6	=6	=6	=6	=6	=6
0D	2r	4d\]	1r	2f/	2a/
.	.	4c\	.	.	.
.	2GG/	2B-\	.	2g/	1g
.	2D\	2A/	1d	1a	.
.	2D\	2A/	.	.	2f#i/
=7	=7	=7	=7	=7	=7
1r	0GG	2G/	2B-\	1b-	0g
.	.	1B-	2G/	.	.
2r	.	.	1d	2g/	.
[2D\	.	4A/	.	2b-\	.
.	.	4G/	.	.	.
=8	=8	=8	=8	=8	=8
2D\]	0r	2F/	2d\	4a/	0r
.	.	.	.	4g/	.
2E-i\	.	2G/	2c\	1g	.
1D	.	1A	1d	.	.
.	.	.	.	2f#i/	.
=9	=9	=9	=9	=9	=9
1GG	2r	1G	1B-	1g	1r
.	2D\	.	.	.	.
2r	2F\	1r	1d	1r	1a
2D\	2F\	.	.	.	.
=10	=10	=10	=10	=10	=10
2F\	1D	2r	2d\	1a	2a/
2F\	.	2A/	2d\	.	2a/
1D	2r	2F/	[1d	2a/	1a
.	2D\	2D/	.	2a/	.
=11	=11	=11	=11	=11	=11
2r	2F\	1A	0d_	1a	2r
2D\	2F\	.	.	.	2a/
2F\	1D	2r	.	2r	2f/
2F\	.	2d\	.	2a/	2d/
=12	=12	=12	=12	=12	=12
1.D	2r	2.f\	1d]	2f/	1.a
.	2D\	.	.	2d/	.
.	.	4e\	.	.	.
.	1F	4d\	1r	1a	.
.	.	4c\	.	.	.
2D\	.	2f\	.	.	2f/
=13	=13	=13	=13	=13	=13
2C/	1r	2e\	2r	2r	2a/
2BB-/	.	2d\	2d\	2d/	2b-\
1E-	1G	1r	2B-\	1g	1g
.	.	.	2G/	.	.
=14	=14	=14	=14	=14	=14
1D	2.B-\	2r	1d	0r	2.f/
.	.	2d\	.	.	.
.	4A\	.	.	.	4g/
1r	2A\	2.f\	1r	.	4a/
.	.	.	.	.	4b-\
.	4G\	.	.	.	[2cc\
.	4F\	4e\	.	.	.
=15	=15	=15	=15	=15	=15
0r	1G	2d\	2r	1r	4cc\]
.	.	.	.	.	4b-\
.	.	4c\	2d\	.	1b-
.	.	4B-\	.	.	.
.	1F	1c	[1f	2r	.
.	.	.	.	2a/	2a/
=16	=16	=16	=16	=16	=16
1D	2r	1d	1f]	2f/	2b-\
.	1D	.	.	2d/	4r
.	.	.	.	.	4a/
2F\	.	2r	2r	[1a	2f/
2F\	2F\	2d\	[2d\	.	2d/
=17	=17	=17	=17	=17	=17
2.D\	2F\	1f	4d\]	2a/]	1a
.	.	.	4c\	.	.
.	2D\	.	2f\	2f/	.
4D\	.	.	.	.	.
2C/	2r	1r	2e\	2a/	2r
2BB-/	2F\	.	[2d\	2b-\	2dd\
=18	=18	=18	=18	=18	=18
1E-	2G\	1r	2d\]	1g	2b-\
.	2G\	.	2c\	.	2g/
1D	1B-	2r	1d	2.f/	1dd
.	.	2d\	.	.	.
.	.	.	.	4g/	.
=19	=19	=19	=19	=19	=19
2r	1F	2.f\	1r	4a/	0r
.	.	.	.	4b-\	.
2F\	.	.	.	2.cc\	.
.	.	4e\	.	.	.
2F\	1r	2d\	2r	.	.
.	.	.	.	4b-\	.
2G\	.	4c\	2d\	[2b-\	.
.	.	4B-\	.	.	.
=20	=20	=20	=20	=20	=20
1F	2r	1c	1f	2b-\]	0r
.	2F\	.	.	2a/	.
1BB-	2G\	2B-\	2r	[1b-	.
.	2G\	2d\	2B-\	.	.
=21	=21	=21	=21	=21	=21
2r	1B-	2d\	2G/	0b-]	2r
2GG/	.	2G/	2G/	.	2b-\
2GG/	1BB-	1d	2.B-\	.	2b-\
2GG/	.	.	.	.	2b-\
.	.	.	4c\	.	.
=22	=22	=22	=22	=22	=22
1.D	2r	2r	0d	0r	2f/
.	2D\	2A/	.	.	2.a/
.	2D\	2d\	.	.	.
.	.	.	.	.	4g/
2G\	2GG/	2d\	.	.	[2b-\
=23	=23	=23	=23	=23	=23
2G\	1D	2.f\	2r	2r	4b-\]
.	.	.	.	.	4a/
2F\	.	.	2d\	2a/	1a
.	.	4e\	.	.	.
1B-	1G	4d\	2d\	2b-\	.
.	.	4c\	.	.	.
.	.	[2e-i\	2G/	2b-\	2g/
=24	=24	=24	=24	=24	=24
1A	2D\	2e-\]	1d	2f/	1a
.	2F\	2d\	.	2.a/	.
2r	1E-i	2d\	2r	.	1r
.	.	.	.	4g/	.
2G\	.	2G/	2e-i\	[2b-\	.
=25	=25	=25	=25	=25	=25
2G\	1D	0d	2f\	4b-\]	1r
.	.	.	.	4a/	.
2F\	.	.	2f\	1a	.
1B-	2r	.	1d	.	2r
.	2G\	.	.	2g/	2g/
=26	=26	=26	=26	=26	=26
1A	2G\	1r	1c	1a	2cc\
.	2F\	.	.	.	2cc\
1r	1B-	2r	1d	2r	4b-\
.	.	.	.	.	2a/
.	.	2G/	.	2g/	.
.	.	.	.	.	4g/
=27	=27	=27	=27	=27	=27
0r	1A	2G/	2e\	2cc\	1a
.	.	2F/	1f	2cc\	.
.	1r	1B-	.	4b-\	2r
.	.	.	.	2a/	.
.	.	.	4e\	.	2d/
.	.	.	4d\	4g/	.
=28	=28	=28	=28	=28	=28
0r	0r	1A	2f\	[0a	2d/
.	.	.	2e\	.	2c/
.	.	2r	1d	.	2.f/
.	.	2d\	.	.	.
.	.	.	.	.	4e/
=29	=29	=29	=29	=29	=29
0r	0r	2d\	[0A	0a]	4f/
.	.	.	.	.	4d/
.	.	2c\	.	.	2.e/
.	.	2.f\	.	.	.
.	.	.	.	.	4d/
.	.	.	.	.	[2d/
.	.	8e\L	.	.	.
.	.	8d\J	.	.	.
=30	=30	=30	=30	=30	=30
1r	0r	1e	1A]	1a	2d/]
.	.	.	.	.	2c#i/
1D	.	2d\	2r	2r	1d
.	.	2f\	2d\	2b-\	.
=31	=31	=31	=31	=31	=31
2F\	1r	2f\	2c\	2a/	1r
2G\	.	2e\	2B-\	2g/	.
1D	2r	2d\	2A/	1a	2r
.	2D\	4r	2f\	.	2a/
.	.	4d\	.	.	.
=32	=32	=32	=32	=32	=32
1r	2F\	2c\	2f\	1r	2a/
.	2G\	2B-\	2e\	.	2g/
2r	1D	2A/	2.d\	2r	1a
2D\	.	[2d\	.	2a/	.
.	.	.	4F/	.	.
=33	=33	=33	=33	=33	=33
2F\	1r	4d\]	2F/	2a/	1r
.	.	4A/	.	.	.
2E\	.	2c\	2G/	2g/	.
1D	2r	2d\	2A/	2.f/	2r
.	2D\	4A/	2d\	.	2a/
.	.	4B-\	.	4g/	.
=34	=34	=34	=34	=34	=34
0r	2C/	4c\	2e\	4a/	2a/
.	.	4d\	.	4b-\	.
.	2C/	2e\	2c\	2cc\	2g/
.	2D\	2d\	2.f\	2b-\	1f
.	[2F\	2c\	.	[2a/	.
.	.	.	4e\	.	.
=35	=35	=35	=35	=35	=35
0r	2F\]	2d\	2d\	4a/]	0r
.	.	.	.	4g/	.
.	2E\	2G/	2c\	1g	.
.	1D	1A	1d	.	.
.	.	.	.	2f#i/	.
=36	=36	=36	=36	=36	=36
2r	1GG	2G/	2r	1g	2r
2B-\	.	2d\	2d\	.	2b-\
2F\	1r	2c\	2f\	1r	2a/
2G\	.	2B-\	2e\	.	2g/
=37	=37	=37	=37	=37	=37
1D	2r	2A/	2.d\	2r	1a
.	2D\	2.d\	.	2a/	.
.	.	.	4F/	.	.
1r	2F\	.	2F/	2a/	1r
.	.	4A/	.	.	.
.	2E\	2c\	2G/	2g/	.
=38	=38	=38	=38	=38	=38
2r	1D	2d\	2A/	2.f/	2r
2D\	.	4A/	2d\	.	2a/
.	.	4B-\	.	4g/	.
2C/	1r	4c\	2e\	4a/	2a/
.	.	4d\	.	4b-\	.
2C/	.	2e\	2c\	2cc\	2g/
=39	=39	=39	=39	=39	=39
2D\	0r	2d\	2.f\	2b-\	1f
1F	.	2c\	.	2.a/	.
.	.	.	4e\	.	.
.	.	2d\	2d\	.	1r
.	.	.	.	4g/	.
2E\	.	2G/	2c\	[2g/	.
=40	=40	=40	=40	=40	=40
1D	2r	1A	1d	2g/]	2r
.	2D\	.	.	2f#i/	2a/
[1GG	2D\	[1G	2r	[1g	2b-\
.	2E-\	.	2B-\	.	2b-\
=41	=41	=41	=41	=41	=41
1GG]	1D	0G_	2B-\	0g_	1.g
.	.	.	2B-\	.	.
[1C	[1E-i	.	1c	.	.
.	.	.	.	.	[2cc\
=42	=42	=42	=42	=42	=42
2C/]	2E-\]	0G]	1e-	0g]	2cc\]
2C/	2C/	.	.	.	2cc\
1C	1E-i	.	2c\	.	1cc
.	.	.	2c\	.	.
=43	=43	=43	=43	=43	=43
0GGl	0Dl	0Gl	0dl	0gl	0b-l
==	==	==	==	==	==
*-	*-	*-	*-	*-	*-
!!!RDF**kern: l=long note in original notation
!!!RDF**kern: i=editorial accidental
!!!ENC:	Will Watson 07/09/2011
!!!END:	2011/09/07/
!!!EED:	Jesse Rodin
!!!EEV:	2011/12/01/
!!attribution-level@Jos: 4 (questionable)
!!!ONB:	Translated from MusicXML and edited on 2011/12/01/ by Craig Sapp
!!muse2ps: C^@{COA}?\n@{SCT}^i2I150v95,95,95,95,95,130Q16
